packages/components/Atoms/Icon/assets/img/rpl_icon_star.svg

<svg width="12" height="12" viewBox="0 0 12 12" overflow="visible" xmlns="http://www.w3.org/2000/svg">
  <path fill-rule="evenodd" clip-rule="evenodd" d="M5.11871 11.4485L3.73935 8.65637L0.847931 7.93368C0.474902 7.87915 0.165078 7.6189 0.0485837 7.2595C-0.0679103 6.90134 0.0287524 6.50849 0.298919 6.24451L2.33896 4.34484L1.81952 1.15729C1.75507 0.785498 1.90752 0.409994 2.21362 0.18692C2.51973 -0.0311967 2.92373 -0.0621806 3.25586 0.1138L6.01208 1.56378L8.76953 0.1138C9.1029 -0.0621806 9.50566 -0.0311967 9.81177 0.18692C10.1179 0.409994 10.2703 0.785498 10.2059 1.15729L9.67313 4.34361L11.701 6.24451C11.9712 6.50849 12.0679 6.90134 11.9514 7.2595C11.8337 7.6189 11.5238 7.87915 11.1508 7.93368L8.27271 8.65637L6.89462 11.4485C6.72732 11.7868 6.38403 12 6.00604 12C5.62929 12 5.28478 11.7868 5.11871 11.4485Z"
    fill="inherit" />
</svg>

<svg width="12" height="12" overflow="visible" xmlns="http://www.w3.org/2000/svg"><path fill-rule="evenodd" clip-rule="evenodd" d="M5.119 11.448l-1.38-2.792-2.891-.722a.99.99 0 01-.55-1.69l2.041-1.9-.52-3.187A.99.99 0 013.257.114l2.756 1.45L8.77.114a.99.99 0 011.436 1.043l-.533 3.187 2.028 1.9a.99.99 0 01-.55 1.69l-2.878.722-1.378 2.792a.99.99 0 01-1.776 0z" fill="inherit"/></svg>
